X:355
T:Many a wild night
R:polka
C:trad
N:original url: www.wolfram.claranet.de
M:2/4
L:1/8
Q:1/8=180
K:G
B,/C/|: DG GF/E/| DB, B,A,/B,/| CEED|1 B,G, G,>B,:|2 G,2 G,2|
|:GD/G/ Bd| cA AG| FD/F/ Ac| BG GD| GD/G/ Bd| cA AG| FD ed| G2G2:|
